X:1
T:Title
%%score { 1 | 2 }
L:1/8
M:4/4
K:Eb
V:1 treble nm="Grand Piano"
V:2 bass 
V:1
 z4 z2[Q:1/4=100] [B,EG]2 | [EGB]3 [B,EG] [EGB]3 [B,EG] | [EGB]2 [B,EG]2 [G,E]3 [B,DF] | %3
 [B,EG]2 [B,FA]2 [B,GB]2 [Ge]2 | [Gd]6 [Ad]2 | [Ge]2 [Ac]2 [GB]3 G | B2 B2 E2 F2 | %7
 G2 B2 [B,EG]3 [A,DF] | [G,E]8 | [B,GB]3 [B,EG] [B,GB]4 | [Ge]3 [Ec] [Ge]4 | B3 B d2 c2 | %12
 [Ec]4 [DB]3 [EB] | [Ge]2 [Ac]2 [GB]3 G | B2 B2 E2 F2 | G2 B2 [EG]3 [DF] |[M:3/4] E6 |] %17
V:2
 z4 z2 E,2 | E,3 E, E,3 E, | E,2 E,2 E,3 B,, | E,2 E,2 E,2 [C,C]2 | [G,=B,]6 [F,_B,]2 | %5
 [E,B,]2 [E,E]2 [E,E]3 [E,B,E] | [E,G,E]2 [F,A,D]2 [G,B,]2[K:treble] [A,CE]2 | %7
 [B,E]2 [B,G]2[K:bass] B,,3 B,, | E,8 | E,3 E, E,4 | [C,C]3 [C,C] [C,C]4 | %11
 [F,DF]3 [F,DF] [F,B,F]2 [F,=A,E]2 | [B,,B,]4 [B,,B,]3 [E,G,] | [E,B,]2 [E,E]2 [E,E]3 [E,B,E] | %14
 [E,G,E]2 [F,A,D]2 [G,B,]2[K:treble] [A,CE]2 | [B,E]2 [B,G]2[K:bass] [B,,B,]3 [B,,A,] | %16
[M:3/4] [E,G,]6 |] %17

